!!!OTL@@DE: Zufriedenheit
!!!COM: Wolf, Ernst Wilhelm
!!!CDT: 1779
!!!OMD: Con amore
!!!LYR: Wagenseil, Christian Jakob
!!!LDT: 1778
!!!OPR: Aus der Operette: "Ehrlichkeit und Liebe"
!!!OCL: Erk, Ludwig
!!!GCO: Deutscher Liederschatz, Band 1
**kern	**kern	**kern
*staff3	*staff2	*staff1
*Ipiano	*Ipiano	*Ivox
*>[A,A,B]	*>[A,A,B]	*>[A,A,B]
*>norep[A,B]	*>norep[A,B]	*>norep[A,B]
*>A	*>A	*>A
*clefF4	*clefG2	*clefG2
*k[b-e-a-]	*k[b-e-a-]	*k[b-e-a-]
*E-:	*E-:	*E-:
*met(C)	*met(C)	*met(C)
*M4/4	*M4/4	*M4/4
*MM80	*MM80	*MM80
4r	(8G/L	8e-/
.	8B-/J)	8g/
=1	=1	=1
2E-\	(8G/L	4.b-\
.	8B-/	.
.	8e-/	.
.	8B-/J)	8g/
2BB-\ 2F\	(8A-/L	8b-/L
.	8B-/	8a-/J
.	8d/	8g/L
.	8B-/J)	8a-/J
=2	=2	=2
2E-\	(8G/L	8b-/L
.	8B-/	8g/J
.	8e-/	4e-/
.	8B-/J)	.
4r	(8G/L	4r
.	8B-/	.
4E-\	8G/	8e-/
.	8B-/J)	8g/
=3	=3	=3
2AA-/	(8A-/L	8g/L
.	8c/	8f/J
.	8f/	8a-/L
.	8c/J)	8f/J
4BB-/	8r	8f/L
.	8G/ 8B-/ 8e-/L	8e-/J
4BB-/	8r	8e-/L
.	8F/ 8B-/ 8d/J	8d/J
=4	=4	=4
8E-/L	4A-/ 4B-/ (4d/	(4d/
8BB-/	.	.
8EE-/	&(4G/&) 4B-/ 4e-/)	4e-/)
8GG/J	.	.
8BB-/L	4r	4r
8E-/J	.	.
=:|!	=:|!	=:|!
*>B	*>B	*>B
8G\L	8b-/L	8b-\
8B-\J	8a-/ 8b-/J	8b-\
=5	=5	=5
8EE-/L	4.g\ 4.b-\ 4.ee-\	4.ee-\
8E-/	.	.
8G/	.	.
8E-/J	8dd\	8dd\
8GG/L	(8dd\L	(8dd\L
8E-/	8cc\)	8cc\J)
8G/	(8cc\	(8cc\L
8E-/J	8bn\J)	8bn\J)
=6	=6	=6
*^	*	*
8AA-\L	4AA-/	(8bn\L	(8bn\L
8E-\	.	8cc\J)	8cc\J)
*v	*v	*	*
8A-\	4cc\	4cc\
8E-\J	.	.
*^	*	*
8BB-\L	4BB-/	4r	4r
8B-\	.	.	.
*v	*v	*	*
8A-\	4d/ 4a-/ 4b-/	8b-\
8F\J	.	8b-\
=7	=7	=7
8E-\L	4.e-/ 4.g/ 4.ee-/	4.ee-\
8G\	.	.
8B-\	.	.
8e-\J	8b-/	8b-\
*	*^	*
4D\ 4B-\	(8b-/L	4f\	(8b-/L
.	8a-/	.	8a-/J)
4E-\ 4B-\	(8a-/)	4e-\	(8a-/L
.	8g/J)	.	8g/J)
*	*v	*v	*
=8	=8	=8
2BB-/	(8e-/ 8g/L	(4g/
.	8B-/	.
.	8d/) 8f/	4f/)
.	(8An/J	.
2r	8B-/L	4r
.	8A-/	.
.	8G/	8e-/
.	8B-/J)	8g/
=9	=9	=9
2E-\	(8G/L	4.b-\
.	8B-/	.
.	8e-/	.
.	8B-/J)	8g/
2BB-\ 2F\	(8A-/L	8b-/L
.	8B-/	8a-/J
.	8d/	8g/L
.	8B-/J)	8a-/J
=10	=10	=10
2E-\	(8G/L	8b-/L
.	8B-/	8g/J
.	8e-/	4e-/
.	8B-/J)	.
4r	(8G/L	4r
.	8B-/	.
4E-\	8G/	8e-/
.	8B-/J)	8g/
=11	=11	=11
2AA-/	(8A-/L	8g/L
.	8c/	8f/J
.	8f/	8a-/L
.	8c/J)	8f/J
4BB-/	8r	8f/L
.	8G/ 8B-/ 8e-/L	8e-/J
4BB-/	8r	8e-/L
.	8F/ 8B-/ 8d/J	8d/J
=12	=12	=12
8E-/L	4A-/ 4B-/ (4d/	(4d/
8BB-/	.	.
8GG/	&(4G/&) 4B-/ 4e-/)	4e-/)
8BB-/J	.	.
4EE-/	4r	4r
==	==	==
*-	*-	*-
!!!ENC: Craig Stuart Sapp
!!!END: 2004/05/18/
!!!EFL: 011/651
